Adwaita++-Light/panel/22/steam_tray_mono.svg

<svg height="22" width="22" xmlns="http://www.w3.org/2000/svg">
  <path d="m10.999998 3a8 8 0 0 0 -7.9277349 6.9863281l4.1269532 2.3828129a2.5 2.5 0 0 1 1.3007814-.369141 2.5 2.5 0 0 1 .412109.03516l2.0976563-3.269535a3 3 0 0 1 2.990235-2.765625 3 3 0 0 1 3 3 3 3 0 0 1 -3 3 3 3 0 0 1 -.423828-.0332l-2.597657 2.21875a2.5 2.5 0 0 1 .02149.31445 2.5 2.5 0 0 1 -2.5000003 2.5 2.5 2.5 0 0 1 -2.5000002-2.5 2.5 2.5 0 0 1 .050781-.484375l-2.9375-1.695312a8 8 0 0 0 7.8867185 6.679687 8 8 0 0 0 8-8 8 8 0 0 0 -7.999999-8zm-7.9277349 6.9863281a8 8 0 0 0 -.052734.6152339 8 8 0 0 1 .052734-.6152339zm10.9277349-2.9863281a2 2 0 0 0 -2 2 2 2 0 0 0 2 2 2 2 0 0 0 2-2 2 2 0 0 0 -2-2zm0 1a1 1 0 0 1 1 1 1 1 0 0 1 -1 1 1 1 0 0 1 -1-1 1 1 0 0 1 1-1zm-11.0000005 3a8 8 0 0 0 .039063.724609 8 8 0 0 1 -.039063-.724609zm5.4609372 2a1.5 1.5 0 0 0 -.1484372.01367l.1875002.107422c.495564.286114.671531.903034.394531 1.382812s-.8989666.635724-1.3945312.34961l-.4980469-.287108a1.5 1.5 0 0 0 1.4980471 1.433594 1.5 1.5 0 0 0 1.5-1.5 1.5 1.5 0 0 0 -1.5-1.5 1.5 1.5 0 0 0 -.03906 0z" fill="#444"/>
</svg>

<svg xmlns="http://www.w3.org/2000/svg" width="22" height="22" version="1.1">
 <defs>
  <style id="current-color-scheme" type="text/css">
   .ColorScheme-Text { color:#444444; } .ColorScheme-Highlight { color:#4285f4; }
  </style>
 </defs>
 <path style="fill:currentColor" class="ColorScheme-Text" d="M 10.999998,3 A 8,8 0 0 0 3.0722631,9.9863281 L 7.1992163,12.369141 A 2.5,2.5 0 0 1 8.4999977,12 a 2.5,2.5 0 0 1 0.412109,0.03516 L 11.009763,8.765625 A 3,3 0 0 1 13.999998,6 a 3,3 0 0 1 3,3 3,3 0 0 1 -3,3 3,3 0 0 1 -0.423828,-0.0332 l -2.597657,2.21875 A 2.5,2.5 0 0 1 11.000003,14.5 2.5,2.5 0 0 1 8.5000027,17 2.5,2.5 0 0 1 6.0000025,14.5 2.5,2.5 0 0 1 6.0507835,14.015625 l -2.9375,-1.695312 A 8,8 0 0 0 11.000002,19 a 8,8 0 0 0 8,-8 8,8 0 0 0 -7.999999,-8 z M 3.0722631,9.9863281 A 8,8 0 0 0 3.0195291,10.601562 8,8 0 0 1 3.0722631,9.9863281 Z M 13.999998,7 a 2,2 0 0 0 -2,2 2,2 0 0 0 2,2 2,2 0 0 0 2,-2 2,2 0 0 0 -2,-2 z m 0,1 a 1,1 0 0 1 1,1 1,1 0 0 1 -1,1 1,1 0 0 1 -1,-1 1,1 0 0 1 1,-1 z M 2.9999975,11 A 8,8 0 0 0 3.0390605,11.724609 8,8 0 0 1 2.9999975,11 Z m 5.4609372,2 a 1.5,1.5 0 0 0 -0.1484372,0.01367 l 0.1875002,0.107422 c 0.495564,0.286114 0.671531,0.903034 0.394531,1.382812 -0.277,0.479778 -0.8989666,0.635724 -1.3945312,0.34961 L 7.0019506,14.566406 A 1.5,1.5 0 0 0 8.4999977,16 a 1.5,1.5 0 0 0 1.5,-1.5 1.5,1.5 0 0 0 -1.5,-1.5 1.5,1.5 0 0 0 -0.03906,0 z"/>
</svg>
